X: 20971
T: Jug Of Punch, The
R: reel
M: 4/4
K: Edorian
|:E2 EF GFGA|B2 Ad Beez|E2 EF GBdB|AFDF GEFD|
E^DEF GFGA|B2 Ad Beef|ge f/g/f edBc|1 dBAF FEED:|2 1 dBAF FEEd||
|:e2 ec d2 dB|e2 ec dBAF|e2 ec d2 dB|AFdF FEEd|
e2 ec d2 dB|e2 ec dBAf|ge f/g/f edBc|1 dBAF FEEd:|2 1 dBAF FEED||

